icon/fa/highlighter.svg

<svg xmlns="http://www.w3.org/2000/svg" viewBox="0 0 576 512"><!--! Font Awesome Free 6.1.2 by @fontawesome - https://fontawesome.com License - https://fontawesome.com/license/free (Icons: CC BY 4.0, Fonts: SIL OFL 1.1, Code: MIT License) Copyright 2022 Fonticons, Inc.--><path d="M143.1 320v-71.7c0-15.3 8.1-29.6 20.4-38.7L436.6 8.398C444 2.943 452.1 0 462.2 0c11.4 0 22.3 4.539 30.4 12.62l54.8 54.76c8.1 8.08 11.7 19.04 11.7 30.46 0 9.16-2 17.26-7.5 25.56L350.4 396.5c-9.1 12.3-24.3 19.5-38.7 19.5h-72.6l-24.5 25.4c-12.5 12.5-32.7 12.5-45.2 0l-50.8-50.8c-12.5-12.5-12.5-32.7 0-45.2l24.5-25.4zM489.4 99.92l-29.3-29.33L245 229l85.1 85.1L489.4 99.92zM23.03 466.3l63.03-63 70.64 70.6-31 30.2c-4.5 5.4-10.6 7.9-17 7.9H40c-13.25 0-24-10.7-24-24v-4.7c0-7.2 2.53-12.5 7.03-17z"/></svg>

<svg xmlns="http://www.w3.org/2000/svg" viewBox="0 0 576 512" height="1em" width="1em">
<!--! Font Awesome Free 6.1.2 by @fontawesome - https://fontawesome.com License - https://fontawesome.com/license/free (Icons: CC BY 4.0, Fonts: SIL OFL 1.1, Code: MIT License) Copyright 2022 Fonticons, Inc.-->
  <path d="M143.1 320V248.3C143.1 233 151.2 218.7 163.5 209.6L436.6 8.398C444 2.943 452.1 0 462.2 0C473.6 0 484.5 4.539 492.6 12.62L547.4 67.38C555.5 75.46 559.1 86.42 559.1 97.84C559.1 107 557.1 115.1 551.6 123.4L350.4 396.5C341.3 408.8 326.1 416 311.7 416H239.1L214.6 441.4C202.1 453.9 181.9 453.9 169.4 441.4L118.6 390.6C106.1 378.1 106.1 357.9 118.6 345.4L143.1 320zM489.4 99.92L460.1 70.59L245 229L330.1 314.1L489.4 99.92zM23.03 466.3L86.06 403.3L156.7 473.9L125.7 504.1C121.2 509.5 115.1 512 108.7 512H40C26.75 512 16 501.3 16 488V483.3C16 476.1 18.53 470.8 23.03 466.3V466.3z"/>
</svg>
